X: 4
T: Bushy Park    (G)
O: 1779
R: jig
S: Image from Darlene Wigton, June 2017
Z: 2017 John Chambers <jc:trillian.mit.edu>
L: 1/8
M: 6/8
K: G
% - - - - - - - - - -
d/c/ |\
"G"BGG dBB | "C"cec "Am"A2c | "G"Bdg "Am"cea | "D7"fdd d2 d/c/ |\
"G"BGG dBB | "C"cec "Am"A2c | "G"Bdg "D7"dc'a | "G"bgg g2 :|
|: g/a/ |\
"G"bgg "D"aff | "A7"gee "D7"fdd | "G"dBG Bdg | "D7"cAA A2 d/c/ |\
"G"BGg "Am"eca | "D"fdb "/e"c'2"/f#"a | "G"bgb "D7"aff | "G"gGG G2 :| [c'2G2]
% - - - - - - - - - -

%%sep 1 1 500

